src/img/icons/gen3.svg

<?xml version="1.0" encoding="UTF-8"?>
<svg width="195px" height="89px" viewBox="0 0 195 89" version="1.1" xmlns="http://www.w3.org/2000/svg" xmlns:xlink="http://www.w3.org/1999/xlink">
    <!-- Generator: Sketch 55 (78076) - https://sketchapp.com -->
    <title>Group 24</title>
    <desc>Created with Sketch.</desc>
    <g id="Page-1" stroke="none" stroke-width="1" fill="none" fill-rule="evenodd">
        <g id="Group-24" transform="translate(-0.000300, 0.000200)">
            <path d="M194.7649,61.404 C194.7649,76.601 182.5599,88.931 167.3689,88.931 L167.2439,88.931 C152.0439,88.931 139.8389,76.601 139.8389,61.404 C139.8389,59.162 141.7059,57.297 143.9469,57.297 C146.1889,57.297 148.0619,59.162 148.0619,61.404 C148.0619,72.119 156.6539,80.709 167.3689,80.709 C177.9529,80.709 186.5499,72.119 186.5499,61.404 C186.5499,51.189 177.0789,42.101 166.1219,42.101 C164.6239,42.101 163.1279,41.228 162.5089,39.855 C161.7569,38.488 161.8819,36.869 162.7609,35.623 L182.8099,8.22 L143.9469,8.22 C141.7059,8.22 139.8389,6.351 139.8389,4.107 C139.8389,1.867 141.7059,2.13162821e-14 143.9469,2.13162821e-14 L190.7829,2.13162821e-14 C192.2809,2.13162821e-14 193.7689,0.871 194.3959,2.242 C195.1399,3.609 195.0149,5.228 194.1459,6.474 L173.4659,34.873 C185.5539,37.99 194.7649,48.949 194.7649,61.404" id="Fill-1" fill="#D9C92E"></path>
            <path d="M41.886,37.82 L41.886,64.009 C41.886,65.711 40.464,67.129 38.763,67.129 C36.966,67.129 35.644,65.711 35.644,64.009 L35.644,62.966 C31.865,66.654 26.663,69.015 20.895,69.015 C9.454,69.015 2.09610107e-13,59.658 2.09610107e-13,48.123 L2.09610107e-13,20.99 C2.09610107e-13,9.455 9.454,-5.68434189e-14 20.895,-5.68434189e-14 C32.429,-5.68434189e-14 41.886,9.455 41.886,20.99 C41.886,22.691 40.464,24.109 38.763,24.109 C36.966,24.109 35.644,22.691 35.644,20.99 C35.644,12.857 29.025,6.24 20.895,6.24 C12.858,6.24 6.24,12.857 6.24,20.99 L6.24,48.123 C6.24,56.158 12.858,62.777 20.895,62.777 C29.025,62.777 35.644,56.158 35.644,48.123 L35.644,40.939 L21.841,40.939 C20.14,40.939 18.722,39.521 18.722,37.82 C18.722,36.117 20.14,34.697 21.841,34.697 L38.763,34.697 C40.464,34.697 41.886,36.117 41.886,37.82" id="Fill-3" fill="#FFFFFF"></path>
            <path d="M57.4876,37.3454 L57.4876,60.8884 L79.6166,60.8884 C81.3136,60.8884 82.7336,62.3064 82.7336,64.0094 C82.7336,65.7104 81.3136,67.1284 79.6166,67.1284 L54.3666,67.1284 C52.5716,67.1284 51.2476,65.7104 51.2476,64.0094 L51.2476,4.5364 C51.2476,2.8354 52.5716,1.4194 54.3666,1.4194 L79.6166,1.4194 C81.3136,1.4194 82.7336,2.8354 82.7336,4.5364 C82.7336,6.2404 81.3136,7.6584 79.6166,7.6584 L57.4876,7.6584 L57.4876,31.1054 L79.6166,31.1054 C81.3136,31.1054 82.7336,32.5254 82.7336,34.2264 C82.7336,36.0214 81.3136,37.3454 79.6166,37.3454 L57.4876,37.3454 Z" id="Fill-6" fill="#FFFFFF"></path>
            <path d="M122.5404,65.5329 L98.5244,17.5019 L98.5244,64.1149 C98.5244,65.9079 97.1064,67.2339 95.4054,67.2339 C93.7024,67.2339 92.2844,65.9079 92.2844,64.1149 L92.2844,4.2649 C92.2844,2.8469 93.2294,1.5249 94.6474,1.2399 C96.0674,0.8609 97.5794,1.5249 98.1454,2.8469 L122.2554,50.9719 L122.2554,4.2649 C122.2554,2.5619 123.5794,1.1439 125.3764,1.1439 C127.0754,1.1439 128.4934,2.5619 128.4934,4.2649 L128.4934,64.1149 C128.4934,65.6269 127.4544,66.8549 126.0364,67.2339 L125.3764,67.2339 C124.1494,67.2339 123.1084,66.6659 122.5404,65.5329" id="Fill-8" fill="#FFFFFF"></path>
            <path d="M5.0999,85.5671 C7.6449,85.5671 9.4969,83.6981 9.4969,81.1351 C9.4969,78.5901 7.6449,76.7381 5.0999,76.7381 L2.8149,76.7381 L2.8149,85.5671 L5.0999,85.5671 Z M1.0489,75.4221 C1.0489,75.2491 1.1869,75.0931 1.3609,75.0931 L5.3419,75.0931 C8.6839,75.0931 11.4179,77.8111 11.4179,81.1351 C11.4179,84.4941 8.6839,87.2121 5.3419,87.2121 L1.3609,87.2121 C1.1869,87.2121 1.0489,87.0561 1.0489,86.8821 L1.0489,75.4221 Z" id="Fill-10" fill="#FFFFFF"></path>
            <path d="M20.0394,83.0915 L17.9104,78.3485 L17.8224,78.3485 L15.7114,83.0915 L20.0394,83.0915 Z M12.1964,86.7615 L17.5114,75.1115 C17.5624,75.0065 17.7204,74.9195 17.8064,74.9195 L17.9794,74.9195 C18.0654,74.9195 18.2224,75.0065 18.2734,75.1115 L23.5534,86.7615 C23.6574,86.9875 23.5184,87.2115 23.2594,87.2115 L22.1694,87.2115 C21.9604,87.2115 21.8404,87.1085 21.7704,86.9515 L20.6964,84.5795 L15.0364,84.5795 C14.6894,85.3765 14.3264,86.1555 13.9794,86.9515 C13.9284,87.0725 13.7894,87.2115 13.5824,87.2115 L12.4904,87.2115 C12.2314,87.2115 12.0934,86.9875 12.1964,86.7615 L12.1964,86.7615 Z" id="Fill-12" fill="#FFFFFF"></path>
            <path d="M26.305,76.7204 L23.484,76.7204 C23.293,76.7204 23.154,76.5654 23.154,76.3924 L23.154,75.4224 C23.154,75.2484 23.293,75.0934 23.484,75.0934 L30.928,75.0934 C31.118,75.0934 31.257,75.2484 31.257,75.4224 L31.257,76.3924 C31.257,76.5654 31.118,76.7204 30.928,76.7204 L28.106,76.7204 L28.106,86.8824 C28.106,87.0564 27.95,87.2114 27.777,87.2114 L26.634,87.2114 C26.461,87.2114 26.305,87.0564 26.305,86.8824 L26.305,76.7204 Z" id="Fill-14" fill="#FFFFFF"></path>
            <path d="M38.6829,83.0915 L36.5529,78.3485 L36.4669,78.3485 L34.3549,83.0915 L38.6829,83.0915 Z M30.8399,86.7615 L36.1559,75.1115 C36.2069,75.0065 36.3619,74.9195 36.4499,74.9195 L36.6219,74.9195 C36.7089,74.9195 36.8649,75.0065 36.9159,75.1115 L42.1979,86.7615 C42.2999,86.9875 42.1619,87.2115 41.9029,87.2115 L40.8119,87.2115 C40.6049,87.2115 40.4829,87.1085 40.4129,86.9515 L39.3399,84.5795 L33.6789,84.5795 C33.3329,85.3765 32.9699,86.1555 32.6229,86.9515 C32.5719,87.0725 32.4329,87.2115 32.2249,87.2115 L31.1339,87.2115 C30.8739,87.2115 30.7359,86.9875 30.8399,86.7615 L30.8399,86.7615 Z" id="Fill-16" fill="#FFFFFF"></path>
            <path d="M53.1019,74.9196 C54.8509,74.9196 56.1149,75.5086 57.2909,76.5306 C57.4479,76.6686 57.4479,76.8766 57.3089,77.0156 L56.5469,77.7946 C56.4259,77.9486 56.2709,77.9486 56.1149,77.7946 C55.2999,77.0836 54.1929,76.6336 53.1189,76.6336 C50.6439,76.6336 48.7739,78.7116 48.7739,81.1356 C48.7739,83.5596 50.6609,85.6186 53.1359,85.6186 C54.3999,85.6186 55.2839,85.1166 56.1149,84.4766 C56.2709,84.3556 56.4259,84.3726 56.5299,84.4596 L57.3269,85.2386 C57.4639,85.3586 57.4299,85.5846 57.3089,85.7056 C56.1319,86.8486 54.6429,87.3846 53.1019,87.3846 C49.6389,87.3846 46.8519,84.6326 46.8519,81.1696 C46.8519,77.7076 49.6389,74.9196 53.1019,74.9196" id="Fill-18" fill="#FFFFFF"></path>
            <path d="M65.0628,85.654 C67.5398,85.654 69.5648,83.645 69.5648,81.17 C69.5648,78.712 67.5398,76.651 65.0628,76.651 C62.6048,76.651 60.5798,78.712 60.5798,81.17 C60.5798,83.645 62.6048,85.654 65.0628,85.654 M65.0628,74.92 C68.5258,74.92 71.2958,77.708 71.2958,81.17 C71.2958,84.633 68.5258,87.384 65.0628,87.384 C61.6008,87.384 58.8478,84.633 58.8478,81.17 C58.8478,77.708 61.6008,74.92 65.0628,74.92" id="Fill-20" fill="#FFFFFF"></path>
            <path d="M75.0863,75.1794 C75.1203,75.0414 75.2593,74.9194 75.3983,74.9194 L75.6753,74.9194 C75.7773,74.9194 75.9343,75.0064 75.9683,75.1114 L79.5863,83.9564 L79.6563,83.9564 L83.2573,75.1114 C83.2923,75.0064 83.4313,74.9194 83.5513,74.9194 L83.8283,74.9194 C83.9673,74.9194 84.1063,75.0414 84.1403,75.1794 L86.2703,86.8134 C86.3213,87.0564 86.2003,87.2114 85.9583,87.2114 L84.8323,87.2114 C84.6773,87.2114 84.5383,87.0904 84.5033,86.9694 L83.2223,79.2314 L83.1703,79.2314 L80.0543,87.1954 C80.0203,87.2984 79.9153,87.3844 79.7603,87.3844 L79.4483,87.3844 C79.3103,87.3844 79.1893,87.2984 79.1543,87.1954 L76.0213,79.2314 L75.9513,79.2314 L74.7053,86.9694 C74.6873,87.0904 74.5313,87.2114 74.3943,87.2114 L73.2683,87.2114 C73.0253,87.2114 72.9043,87.0564 72.9393,86.8134 L75.0863,75.1794 Z" id="Fill-22" fill="#FFFFFF"></path>
            <path d="M90.1282,75.1794 C90.1632,75.0414 90.3022,74.9194 90.4402,74.9194 L90.7172,74.9194 C90.8202,74.9194 90.9772,75.0064 91.0122,75.1114 L94.6292,83.9564 L94.6992,83.9564 L98.3002,75.1114 C98.3342,75.0064 98.4732,74.9194 98.5942,74.9194 L98.8712,74.9194 C99.0102,74.9194 99.1492,75.0414 99.1832,75.1794 L101.3132,86.8134 C101.3642,87.0564 101.2422,87.2114 101.0012,87.2114 L99.8752,87.2114 C99.7202,87.2114 99.5812,87.0904 99.5462,86.9694 L98.2652,79.2314 L98.2132,79.2314 L95.0972,87.1954 C95.0632,87.2984 94.9582,87.3844 94.8022,87.3844 L94.4902,87.3844 C94.3532,87.3844 94.2322,87.2984 94.1972,87.1954 L91.0642,79.2314 L90.9932,79.2314 L89.7482,86.9694 C89.7302,87.0904 89.5742,87.2114 89.4372,87.2114 L88.3112,87.2114 C88.0682,87.2114 87.9462,87.0564 87.9822,86.8134 L90.1282,75.1794 Z" id="Fill-24" fill="#FFFFFF"></path>
            <path d="M109.1878,85.654 C111.6638,85.654 113.6888,83.645 113.6888,81.17 C113.6888,78.712 111.6638,76.651 109.1878,76.651 C106.7298,76.651 104.7038,78.712 104.7038,81.17 C104.7038,83.645 106.7298,85.654 109.1878,85.654 M109.1878,74.92 C112.6498,74.92 115.4198,77.708 115.4198,81.17 C115.4198,84.633 112.6498,87.384 109.1878,87.384 C105.7248,87.384 102.9728,84.633 102.9728,81.17 C102.9728,77.708 105.7248,74.92 109.1878,74.92" id="Fill-26" fill="#FFFFFF"></path>
            <path d="M117.8948,75.2311 C117.8948,75.0581 118.0498,74.9191 118.2238,74.9191 L118.6558,74.9191 L126.1698,83.6111 L126.1868,83.6111 L126.1868,75.4221 C126.1868,75.2491 126.3258,75.0931 126.5158,75.0931 L127.6238,75.0931 C127.7968,75.0931 127.9528,75.2491 127.9528,75.4221 L127.9528,87.0731 C127.9528,87.2471 127.7968,87.3841 127.6238,87.3841 L127.1728,87.3841 L119.6608,78.4521 L119.6428,78.4521 L119.6428,86.8821 C119.6428,87.0561 119.5038,87.2111 119.3148,87.2111 L118.2238,87.2111 C118.0498,87.2111 117.8948,87.0561 117.8948,86.8821 L117.8948,75.2311 Z" id="Fill-28" fill="#FFFFFF"></path>
            <path d="M130.5315,85.4636 C130.6865,85.2386 130.8255,84.9786 130.9815,84.7536 C131.1365,84.5276 131.3795,84.4596 131.5695,84.6146 C131.6745,84.7016 133.0065,85.8096 134.3405,85.8096 C135.5335,85.8096 136.2965,85.0826 136.2965,84.1996 C136.2965,83.1606 135.3955,82.5026 133.6815,81.7936 C131.9155,81.0486 130.5315,80.1306 130.5315,78.1226 C130.5315,76.7726 131.5695,74.9196 134.3225,74.9196 C136.0535,74.9196 137.3515,75.8196 137.5255,75.9426 C137.6635,76.0276 137.8025,76.2706 137.6295,76.5306 C137.4905,76.7376 137.3355,76.9806 137.1965,77.1886 C137.0575,77.4126 136.8335,77.5176 136.5905,77.3606 C136.4685,77.2916 135.2575,76.4956 134.2535,76.4956 C132.7995,76.4956 132.2975,77.4126 132.2975,78.0536 C132.2975,79.0396 133.0585,79.6466 134.4955,80.2346 C136.5035,81.0486 138.2175,82.0006 138.2175,84.1126 C138.2175,85.9136 136.6075,87.3846 134.3565,87.3846 C132.2455,87.3846 130.9115,86.2766 130.6355,86.0176 C130.4785,85.8796 130.3575,85.7576 130.5315,85.4636" id="Fill-30" fill="#FFFFFF"></path>
        </g>
    </g>
</svg>

<svg width="195" height="89" xmlns="http://www.w3.org/2000/svg"><g fill="none" fill-rule="evenodd"><path d="M194.765 61.404c0 15.197-12.205 27.527-27.396 27.527h-.125c-15.2 0-27.405-12.33-27.405-27.527 0-2.242 1.867-4.107 4.108-4.107 2.242 0 4.115 1.865 4.115 4.107a19.24 19.24 0 0019.307 19.305c10.584 0 19.18-8.59 19.18-19.305 0-10.215-9.47-19.303-20.427-19.303-1.498 0-2.994-.873-3.613-2.246-.752-1.367-.627-2.986.252-4.232L182.81 8.22h-38.863c-2.241 0-4.108-1.869-4.108-4.113 0-2.24 1.867-4.107 4.108-4.107h46.836c1.498 0 2.986.871 3.613 2.242.744 1.367.619 2.986-.25 4.232l-20.68 28.4c12.088 3.116 21.299 14.075 21.299 26.53" fill="#D9C92E"/><path d="M41.886 37.82v26.19c0 1.701-1.422 3.12-3.123 3.12-1.797 0-3.12-1.419-3.12-3.12v-1.044c-3.778 3.688-8.98 6.05-14.748 6.05C9.454 69.015 0 59.657 0 48.122V20.99C0 9.455 9.454 0 20.895 0c11.534 0 20.99 9.455 20.99 20.99 0 1.701-1.421 3.12-3.122 3.12-1.797 0-3.12-1.419-3.12-3.12 0-8.133-6.618-14.75-14.748-14.75-8.037 0-14.655 6.617-14.655 14.75v27.133c0 8.035 6.618 14.654 14.655 14.654 8.13 0 14.749-6.619 14.749-14.654V40.94H21.84c-1.701 0-3.12-1.418-3.12-3.119 0-1.703 1.419-3.123 3.12-3.123h16.922c1.7 0 3.123 1.42 3.123 3.123m15.602-.475v23.543h22.13c1.696 0 3.116 1.418 3.116 3.12 0 1.702-1.42 3.12-3.117 3.12h-25.25c-1.795 0-3.119-1.418-3.119-3.12V4.538c0-1.701 1.324-3.117 3.12-3.117h25.25c1.696 0 3.116 1.416 3.116 3.117 0 1.704-1.42 3.122-3.117 3.122H57.487v23.447h22.13c1.696 0 3.116 1.42 3.116 3.12 0 1.796-1.42 3.12-3.117 3.12H57.487zm65.053 28.187l-24.016-48.03v46.612c0 1.793-1.418 3.12-3.119 3.12-1.703 0-3.12-1.327-3.12-3.12V4.265c0-1.418.944-2.74 2.362-3.025 1.42-.379 2.932.285 3.498 1.607l24.11 48.125V4.265c0-1.703 1.324-3.12 3.121-3.12 1.7 0 3.117 1.417 3.117 3.12v59.85c0 1.512-1.039 2.74-2.457 3.12h-.66c-1.227 0-2.268-.569-2.836-1.702M5.1 85.567c2.545 0 4.397-1.869 4.397-4.432 0-2.545-1.852-4.397-4.397-4.397H2.815v8.83H5.1zM1.049 75.422c0-.173.138-.329.312-.329h3.98c3.343 0 6.077 2.718 6.077 6.042a6.083 6.083 0 01-6.076 6.077H1.36c-.174 0-.312-.156-.312-.33v-11.46zm18.991 7.67l-2.13-4.743h-.088l-2.11 4.743h4.327zm-7.844 3.67l5.315-11.65a.404.404 0 01.295-.192h.173c.086 0 .243.087.294.192l5.28 11.65c.104.226-.035.45-.294.45h-1.09a.403.403 0 01-.399-.26l-1.074-2.372h-5.66c-.347.797-.71 1.576-1.057 2.372a.434.434 0 01-.397.26H12.49c-.259 0-.397-.224-.294-.45zM26.305 76.72h-2.821a.329.329 0 01-.33-.327v-.97a.33.33 0 01.33-.33h7.444a.33.33 0 01.329.33v.97a.328.328 0 01-.33.328h-2.821v10.162a.34.34 0 01-.33.329h-1.142a.34.34 0 01-.33-.33v-10.16zm12.378 6.372l-2.13-4.743h-.086l-2.112 4.743h4.328zm-7.843 3.67l5.316-11.65a.4.4 0 01.294-.192h.172c.087 0 .243.087.294.192l5.282 11.65c.102.226-.036.45-.295.45h-1.091a.404.404 0 01-.4-.26L39.34 84.58h-5.661c-.346.797-.71 1.576-1.056 2.372a.434.434 0 01-.398.26h-1.091c-.26 0-.398-.224-.294-.45zM53.102 74.92c1.749 0 3.013.589 4.189 1.61a.32.32 0 01.018.486l-.762.779c-.121.154-.276.154-.432 0-.815-.711-1.922-1.161-2.996-1.161-2.475 0-4.345 2.078-4.345 4.502s1.887 4.483 4.362 4.483c1.264 0 2.148-.502 2.979-1.142.156-.121.31-.104.415-.017l.797.779c.137.12.103.346-.018.467-1.177 1.143-2.666 1.679-4.207 1.679-3.463 0-6.25-2.752-6.25-6.215a6.236 6.236 0 016.25-6.25m11.961 10.734c2.477 0 4.502-2.009 4.502-4.484 0-2.458-2.025-4.519-4.502-4.519-2.459 0-4.483 2.061-4.483 4.52a4.496 4.496 0 004.483 4.483m0-10.734a6.222 6.222 0 016.233 6.25c0 3.463-2.77 6.214-6.234 6.214a6.176 6.176 0 01-6.214-6.214c0-3.462 2.753-6.25 6.215-6.25m10.023.26c.034-.138.173-.26.312-.26h.277c.102 0 .259.087.293.192l3.618 8.845h.07l3.601-8.845c.035-.105.174-.192.294-.192h.277c.139 0 .278.122.312.26l2.13 11.634c.051.243-.07.398-.312.398h-1.126a.36.36 0 01-.329-.242l-1.281-7.738h-.052l-3.116 7.964c-.034.103-.139.189-.294.189h-.312c-.138 0-.259-.086-.294-.19l-3.133-7.963h-.07l-1.246 7.738c-.018.12-.174.242-.311.242h-1.126c-.243 0-.364-.155-.329-.398l2.147-11.634zm15.042 0c.035-.138.174-.26.312-.26h.277c.103 0 .26.087.295.192l3.617 8.845h.07l3.6-8.845c.035-.105.174-.192.295-.192h.277c.139 0 .278.122.312.26l2.13 11.634c.05.243-.071.398-.312.398h-1.126a.36.36 0 01-.33-.242l-1.28-7.738h-.052l-3.116 7.964c-.034.103-.14.189-.295.189h-.312c-.137 0-.258-.086-.293-.19l-3.133-7.963h-.071l-1.245 7.738c-.018.12-.174.242-.311.242H88.31c-.243 0-.365-.155-.33-.398l2.147-11.634zm19.06 10.474c2.475 0 4.5-2.009 4.5-4.484 0-2.458-2.025-4.519-4.5-4.519-2.459 0-4.484 2.061-4.484 4.52a4.497 4.497 0 004.484 4.483m0-10.734a6.222 6.222 0 016.231 6.25c0 3.463-2.77 6.214-6.231 6.214a6.175 6.175 0 01-6.215-6.214c0-3.462 2.752-6.25 6.215-6.25m8.707.311c0-.173.155-.312.329-.312h.431l7.514 8.692h.018v-8.189a.33.33 0 01.329-.329h1.108a.34.34 0 01.329.33v11.65c0 .174-.156.311-.33.311h-.45l-7.513-8.932h-.017v8.43a.328.328 0 01-.328.33h-1.091a.34.34 0 01-.33-.33v-11.65zm12.636 10.233c.155-.225.294-.485.45-.71.155-.226.398-.294.588-.14.105.088 1.437 1.196 2.771 1.196 1.193 0 1.956-.727 1.956-1.61 0-1.04-.9-1.697-2.615-2.406-1.766-.745-3.15-1.663-3.15-3.671 0-1.35 1.038-3.203 3.791-3.203 1.731 0 3.03.9 3.203 1.023a.41.41 0 01.104.588c-.139.207-.294.45-.433.658-.139.224-.363.329-.606.172-.122-.07-1.333-.865-2.337-.865-1.454 0-1.956.917-1.956 1.558 0 .986.761 1.593 2.198 2.18 2.008.815 3.722 1.767 3.722 3.879 0 1.8-1.61 3.272-3.86 3.272-2.112 0-3.446-1.108-3.722-1.367-.157-.138-.278-.26-.104-.554" fill="#FFF"/></g></svg>
